X:546
%%etbk:tnset id:281,pos:2,rep:2x,ant:
%%etbk:pldat 2016-08-18T19:27,2016-08-17T16:41,2016-08-16T16:52,2016-08-15T18:18,2015-02-22T12:48,2015-02-19T19:34,2015-01-14T16:00,2015-01-12T18:53,2015-01-10T15:47,2015-01-08T18:01,2015-01-07T16:30,2015-01-05T19:09,2014-04-12T11:37,2014-04-09T15:31,2014-04-06T11:15,2014-04-03T19:16,2014-03-22T15:59,2014-03-04T19:09,2014-01-30T18:14,2014-01-29T16:21,2014-01-28T17:54,2014-01-26T15:22,2014-01-21T18:02,2014-01-18T16:10,2014-01-12T14:21,2014-01-09T18:47,2014-01-06T18:25,2014-01-03T16:06,2013-12-28T13:36,2013-12-27T16:03,2013-12-26T13:53,2013-12-22T16:50,2013-12-21T16:31,2013-12-18T16:27,2013-12-17T16:08,2013-12-16T18:01,2013-12-15T14:00,2013-12-10T18:25,2013-12-05T20:32,2013-12-04T17:00
T: Flatwater Fran
Z: Piano Box Version by Martin Fleischmann
H: Created 2013-12-01 /  Modified 2013-12-15
R: waltz
M: 3/4
L: 1/8
K: Gmaj
!1!D!2!E|:"G"G2!3!G!3!G DE | !3!G2!1!G!1!G Bd |"C"!5!e2!4!d2!1!G2 | "G"!5!B4DE | !3!G2GG DE | "am"!4!A2A2GA |
"em"!5!B2!4!AG !2!E!1!D | "C"!2!E4DE | "G"!3!G!1!D !3!G!3!G DE | !3!G!1!D !3!G!1!G !2!B!4!d | "C"!3!e2!2!d2!5!g2 | "G"!1!B4!5!dB |
"am"!2!A2AG AB | "em"!2!A!1!G!2!E2GE | "C"!1!D!2!E!3!G2"D7"G2 |1 "G"G4DE:|2 "G"G4!2!B!4!d||
|:" C"!5!e2!4!d2!1!G2 | "G"!2!B4!2!B!4!d | "C"!5!e2!4!d2!1!G2 | "G"!2!B4!1!B!2!d | "C"!3!e2!2!d2!5!g2 | "G"!1!!3!B2!5!dB AG |
"D"A2AG AB | !2!A4!1!B!2!d | "C"!3!e2d2g2 | "G"B2!5!dB AG | "D7"A2d3c | "em"B3B AG |
"am"!2!E!4!A AG AB | "em"AG E2GE |1 "C"DEG2"D7"G2 | "G"G4Bd:|2 "C"DEG2"D7"A2 | "G"G4||


